X: 1
T: the Cup of Tea
R: reel
Z: 2020 John Chambers <jc:trillian.mit.edu>
S: https://www.facebook.com/groups/Fiddletuneoftheday/ 2020-10-19
S: https://www.facebook.com/groups/Fiddletuneoftheday/photos/
M: C|
L: 1/8
K: D
|:\
BAGF GE~E2 | GEBE BE~E2 | BAGF GEEG | F/E/D AD BDAD |
BAGF GE~E2 | GEBE GE~E2 | BAGF GABc | dBAG FD~D2 :|
|:\
~d2eg fdec | ~d2eg fdec | dBAG FD~D2 |
~d2eg fdec | dfaf ~g2fg | af g/f/e fdec | dBAG FD~D2 :|
|:\
FA~A2 FAdA | FAdA FE~E2 | FAAF A2Bc | dBAG FD~D2 |
FA~A2 FAdA | FAde fe~e2 | fdec dBAF | GBAG FD~D2 :|
